static/card-icons/logo-calendar.svg

<svg height="64" viewBox="0 0 64 64" width="64" xmlns="http://www.w3.org/2000/svg"><g fill="#fff"><path d="m36.293 1.929c5.177-1.387 10.497 1.685 11.884 6.861l1.33 4.961-2.817 10.512-3.508-13.089c-.693-2.589-3.377-4.118-5.995-3.417l-24.075 6.451c-2.617.701-4.177 3.368-3.483 5.956l9.292 34.679c.693 2.588 3.377 4.117 5.995 3.416l24.075-6.451c2.67-.824 3.928-3.205 3.495-5.882l2.821-10.527 2.531 9.447c1.388 5.176-1.684 10.497-6.861 11.884l-25.255 6.767c-5.176 1.387-10.497-1.685-11.884-6.861l-9.661-36.056c-1.387-5.176 1.685-10.497 6.861-11.884z"/><path d="m57.814 4.692c1.631.396 2.655 1.811 2.255 3.308s-9.088 33.569-9.088 33.569c-1.399 1.91-2.797 3.82-4.187 5.736-.242.335-.689.22-.717-.222l-.972-7.105s8.681-32.064 9.091-33.568c.411-1.505 1.986-2.115 3.618-1.718z"/><path d="m10.278 21.205 32.929-8.823c1.599-.429 3.131.105 3.423 1.192.291 1.087-.769 2.316-2.368 2.744l-32.93 8.824c-1.599.428-3.131-.106-3.422-1.193-.292-1.087.768-2.315 2.368-2.744z"/><path d="m33.986.251c1.252-.336 2.538.407 2.874 1.659l1.367 5.102c.336 1.252-.407 2.539-1.659 2.874-1.252.336-2.539-.407-2.874-1.659l-1.367-5.103c-.336-1.251.407-2.538 1.659-2.873z"/><path d="m24.236 27.409 11.622-3.114.877 3.275-8.893 2.383.376 6.024.081.047q.515-1.033 1.539-1.772 1.023-.738 2.147-1.039 1.669-.448 3.136-.239 1.467.209 2.636.98 1.17.77 2.006 2.026.835 1.256 1.265 2.861.361 1.348.311 2.893-.051 1.545-.684 2.97-.633 1.426-1.908 2.576-1.274 1.15-3.329 1.7-1.637.439-3.15.38-1.512-.059-2.804-.642-1.292-.583-2.257-1.683-.966-1.101-1.486-2.785l3.66-.981q.65 1.787 2.004 2.474 1.354.687 3.152.205 1.156-.31 1.855-.91.699-.6 1.016-1.408.317-.807.285-1.762-.032-.955-.307-1.982-.25-.931-.735-1.713-.484-.782-1.17-1.287-.686-.504-1.608-.67-.922-.166-2.013.127-1.156.309-2.051 1.014-.895.704-1.026 2.012l-3.66.981z"/><path d="m12.546 5.995c1.252-.335 2.538.408 2.874 1.66l1.367 5.102c.336 1.252-.407 2.539-1.659 2.874-1.252.336-2.539-.407-2.874-1.659l-1.367-5.103c-.336-1.252.407-2.538 1.659-2.874z"/></g></svg>

<?xml version="1.0" encoding="UTF-8"?>
<!DOCTYPE svg PUBLIC "-//W3C//DTD SVG 1.1//EN" "http://www.w3.org/Graphics/SVG/1.1/DTD/svg11.dtd">
<svg version="1.1" xmlns="http://www.w3.org/2000/svg" xmlns:xlink="http://www.w3.org/1999/xlink" x="0" y="0" width="64" height="64" viewBox="0, 0, 64, 64">
  <g id="Calendar">
    <path d="M36.293,1.929 C41.47,0.542 46.79,3.614 48.177,8.79 L49.507,13.751 L46.69,24.263 L43.182,11.174 C42.489,8.585 39.805,7.056 37.187,7.757 L13.112,14.208 C10.495,14.909 8.935,17.576 9.629,20.164 L18.921,54.843 C19.614,57.431 22.298,58.96 24.916,58.259 L48.991,51.808 C51.661,50.984 52.919,48.603 52.486,45.926 L55.307,35.399 L57.838,44.846 C59.226,50.022 56.154,55.343 50.977,56.73 L25.722,63.497 C20.546,64.884 15.225,61.812 13.838,56.636 L4.177,20.58 C2.79,15.404 5.862,10.083 11.038,8.696 L36.293,1.929 z" fill="#FFFFFF"/>
    <path d="M57.814,4.692 C59.445,5.088 60.469,6.503 60.069,8 C59.669,9.497 50.981,41.569 50.981,41.569 L50.981,41.569 C49.582,43.479 48.184,45.389 46.794,47.305 C46.552,47.64 46.105,47.525 46.077,47.083 L45.105,39.978 C45.105,39.978 53.786,7.914 54.196,6.41 C54.607,4.905 56.182,4.295 57.814,4.692 z" fill="#FFFFFF" id="Pencil"/>
    <path d="M10.278,21.205 L43.207,12.382 C44.806,11.953 46.338,12.487 46.63,13.574 L46.63,13.574 C46.921,14.661 45.861,15.89 44.262,16.318 L11.332,25.142 C9.733,25.57 8.201,25.036 7.91,23.949 L7.91,23.949 C7.618,22.862 8.678,21.634 10.278,21.205 z" fill="#FFFFFF"/>
    <path d="M33.986,0.251 L33.986,0.251 C35.238,-0.085 36.524,0.658 36.86,1.91 L38.227,7.012 C38.563,8.264 37.82,9.551 36.568,9.886 L36.568,9.886 C35.316,10.222 34.029,9.479 33.694,8.227 L32.327,3.124 C31.991,1.873 32.734,0.586 33.986,0.251 z" fill="#FFFFFF"/>
    <path d="M24.236,27.409 L35.858,24.295 L36.735,27.57 L27.842,29.953 L28.218,35.977 L28.299,36.024 Q28.814,34.991 29.838,34.252 Q30.861,33.514 31.985,33.213 Q33.654,32.765 35.121,32.974 Q36.588,33.183 37.757,33.954 Q38.927,34.724 39.763,35.98 Q40.598,37.236 41.028,38.841 Q41.389,40.189 41.339,41.734 Q41.288,43.279 40.655,44.704 Q40.022,46.13 38.747,47.28 Q37.473,48.43 35.418,48.98 Q33.781,49.419 32.268,49.36 Q30.756,49.301 29.464,48.718 Q28.172,48.135 27.207,47.035 Q26.241,45.934 25.721,44.25 L29.381,43.269 Q30.031,45.056 31.385,45.743 Q32.739,46.43 34.537,45.948 Q35.693,45.638 36.392,45.038 Q37.091,44.438 37.408,43.63 Q37.725,42.823 37.693,41.868 Q37.661,40.913 37.386,39.886 Q37.136,38.955 36.651,38.173 Q36.167,37.391 35.481,36.886 Q34.795,36.382 33.873,36.216 Q32.951,36.05 31.86,36.343 Q30.704,36.652 29.809,37.357 Q28.914,38.061 28.783,39.369 L25.123,40.35 z" fill="#FFFFFF"/>
    <path d="M12.546,5.995 L12.546,5.995 C13.798,5.66 15.084,6.403 15.42,7.655 L16.787,12.757 C17.123,14.009 16.38,15.296 15.128,15.631 L15.128,15.631 C13.876,15.967 12.589,15.224 12.254,13.972 L10.887,8.869 C10.551,7.617 11.294,6.331 12.546,5.995 z" fill="#FFFFFF"/>
  </g>
</svg>
